Resources/Icons/paste.svg

<svg version="1.1" xmlns="http://www.w3.org/2000/svg">
  <path
     style="fill:#000000"
     d="M 324.46875 544.0625 C 320.11763 543.9697 315.64297 545.08334 311.375 547.40625 C 302.34825 552.31923 299.3408 558.01448 298.5 571.78125 L 297.9375 581.28125 L 286.9375 581.84375 C 275.26756 582.4362 270.90438 583.85342 268 588 C 266.45273 590.20905 265.80459 598.83585 267.09375 600.125 C 267.46041 600.49167 293.08965 600.78125 324.0625 600.78125 L 380.375 600.78125 L 381.03125 598.28125 C 383.7103 587.60705 375.76666 581.8609 358.3125 581.8125 L 349.71875 581.78125 L 349.15625 572.46875 C 348.4914 561.32501 346.06916 555.37373 340.15625 550.3125 C 335.47487 546.30541 330.06305 544.18175 324.46875 544.0625 z M 323.5625 560.75 C 328.29637 560.75 332.15625 564.57863 332.15625 569.3125 C 332.15625 574.04637 328.29637 577.90625 323.5625 577.90625 C 318.82863 577.90625 315 574.04637 315 569.3125 C 315 564.57863 318.82863 560.75 323.5625 560.75 z M 250.21875 569.75 L 246.9375 571.78125 C 245.12493 572.90148 242.9148 575.3568 242.03125 577.21875 L 240.4375 580.59375 L 240.4375 661.9375 L 240.4375 743.28125 L 242.1875 746.71875 C 243.14915 748.60465 245.1983 751.07965 246.75 752.21875 L 249.5625 754.28125 L 283.25 754.78125 L 316.9375 755.28125 L 317.1875 763.28125 C 317.33585 767.68125 317.65762 771.87045 317.90625 772.5625 C 318.26376 773.5575 330.25367 773.76675 375.15625 773.5625 L 431.9375 773.28125 L 431.9375 697.28125 L 431.9375 621.28125 L 420.5 621 C 414.16925 620.84254 408.47547 620.22708 407.75 619.625 C 406.75116 618.79603 406.4375 613.92794 406.4375 599.125 L 406.4375 579.6875 L 404.875 576.6875 C 404.0233 575.04049 401.8858 572.82362 400.125 571.75 L 396.9375 569.8125 L 376.78125 569.78125 L 356.65625 569.78125 L 356.03125 571.40625 C 354.82084 574.56051 357.23723 575.58204 366.8125 575.9375 L 376.09375 576.28125 L 380.0625 579.03125 C 382.2434 580.54375 385.27331 581.78125 386.78125 581.78125 C 388.35886 581.78125 390.55638 582.83763 391.96875 584.25 L 394.4375 586.6875 L 394.4375 602.625 C 394.4375 614.69853 394.10784 618.81463 393.09375 619.65625 C 392.18024 620.4144 380.05667 620.85196 354.84375 621.03125 L 317.9375 621.28125 L 317.4375 681.28125 L 316.9375 741.28125 L 287.03125 741.5625 L 257.125 741.8125 L 255.28125 740.15625 L 253.4375 738.46875 L 253.4375 661.6875 L 253.4375 584.90625 L 255.65625 583.34375 C 256.87862 582.48757 259.32359 581.78125 261.09375 581.78125 C 262.86391 581.78125 264.62469 581.29477 265 580.6875 C 266.6358 578.04072 274.05248 575.8492 281.4375 575.8125 C 289.71824 575.7713 291.79067 574.969 291.25 572.15625 L 290.90625 570.28125 L 270.5625 570.03125 L 250.21875 569.75 z M 335.375 641.84375 L 415.1875 641.84375 L 415.1875 655.875 L 335.375 655.875 L 335.375 641.84375 z M 335.375 673.84375 L 415.1875 673.84375 L 415.1875 687.875 L 335.375 687.875 L 335.375 673.84375 z M 335.375 705.875 L 415.1875 705.875 L 415.1875 719.90625 L 335.375 719.90625 L 335.375 705.875 z M 335.375 737.90625 L 415.1875 737.90625 L 415.1875 751.90625 L 335.375 751.90625 L 335.375 737.90625 z "
     id="path32729" />
</svg>

<svg version="1.1" xmlns="http://www.w3.org/2000/svg"><path d="M324.469 544.063c-4.351-.093-8.826 1.02-13.094 3.343-9.027 4.913-12.034 10.608-12.875 24.375l-.563 9.5-11 .563c-11.67.592-16.033 2.01-18.937 6.156-1.547 2.21-2.195 10.836-.906 12.125.366.367 25.996.656 56.969.656h56.312l.656-2.5c2.68-10.674-5.264-16.42-22.719-16.468l-8.593-.032-.563-9.312c-.665-11.144-3.087-17.095-9-22.157-4.681-4.007-10.093-6.13-15.687-6.25zm-.906 16.687c4.733 0 8.593 3.829 8.593 8.563 0 4.733-3.86 8.593-8.594 8.593-4.733 0-8.562-3.86-8.562-8.593a8.556 8.556 0 0 1 8.563-8.563zm-73.344 9l-3.281 2.031c-1.813 1.12-4.023 3.576-4.907 5.438l-1.594 3.375V743.28l1.75 3.438c.962 1.886 3.011 4.36 4.563 5.5l2.813 2.062 33.687.5 33.688.5.25 8c.148 4.4.47 8.59.718 9.282.358.995 12.348 1.204 57.25 1l56.781-.282v-152L420.5 621c-6.33-.157-12.025-.773-12.75-1.375-.999-.829-1.313-5.697-1.313-20.5v-19.438l-1.562-3c-.852-1.647-2.99-3.863-4.75-4.937l-3.188-1.938-20.156-.03h-20.125l-.625 1.624c-1.21 3.155 1.206 4.176 10.781 4.532l9.282.343 3.969 2.75c2.18 1.513 5.21 2.75 6.718 2.75 1.578 0 3.775 1.057 5.188 2.469l2.469 2.438v15.937c0 12.074-.33 16.19-1.344 17.031-.914.758-13.037 1.196-38.25 1.375l-36.906.25-.5 60-.5 60-29.907.282-29.906.25-1.844-1.657-1.844-1.687V584.907l2.22-1.563c1.222-.856 3.667-1.563 5.437-1.563 1.77 0 3.53-.486 3.906-1.093 1.636-2.647 9.052-4.839 16.438-4.875 8.28-.042 10.353-.844 9.812-3.657l-.344-1.875-20.344-.25-20.343-.281zm85.156 72.094h79.813v14.031h-79.813v-14.031zm0 32h79.813v14.031h-79.813v-14.031zm0 32.031h79.813v14.031h-79.813v-14.031zm0 32.031h79.813v14h-79.813v-14z" fill="#000"/></svg>
